;FLAVOR:RepRap
;TIME:2048
;Filament used: 2.30303m
;Layer height: 0.2
;Generated with Cura_SteamEngine 0.0.0-master
M190 S50
M104 S210
M109 S210
G21 ;metric values
 G90 ;absolute positioning
 M82 ;set extruder to absolute mode
 M107 ;start with the fan off
 G28 X0 Y0 ;move X/Y to min endstops
 G28 Z0 ;move Z to min endstops
 G1 Z15.0 F{travel_speed} ;move the platform down 15mm
 G92 E0 ;zero the extruded length
 G1 F200 E6 ;extrude 6 mm of feed stock
 G92 E0 ;zero the extruded length again
 G1 F{travel_speed} 
 ;Put printing message on LCD screen
 M117 Printing...
;LAYER_COUNT:69
;LAYER:0
M107
G0 F3600 X133.679 Y129.476 Z0.15
;TYPE:SKIRT
G1 F1800 X134.242 Y128.968 E0.01892
G1 X134.856 Y128.522 E0.03785
G1 X135.502 Y128.15 E0.05644
G1 X140.821 Y125.436 E0.2054
G1 X141.514 Y125.127 E0.22433
G1 X142.235 Y124.893 E0.24324
G1 X142.964 Y124.738 E0.26183
G1 X148.863 Y123.801 E0.41082
G1 X149.617 Y123.722 E0.42973
G1 X150.376 Y123.722 E0.44867
G1 X151.116 Y123.8 E0.46723
G1 X157.015 Y124.732 E0.61621
G1 X157.757 Y124.89 E0.63513
G1 X158.478 Y125.125 E0.65405
G1 X159.158 Y125.428 E0.67262
G1 X164.481 Y128.138 E0.82162
G1 X165.138 Y128.517 E0.84054
G1 X165.751 Y128.963 E0.85945
G1 X166.312 Y129.47 E0.87831
G1 X170.557 Y133.727 E1.02828
G1 X171.064 Y134.292 E1.04721
G1 X171.508 Y134.907 E1.06613
G1 X171.874 Y135.542 E1.08442
G1 X174.559 Y140.812 E1.23196
G1 X174.868 Y141.506 E1.25091
G1 X175.101 Y142.227 E1.26981
G1 X175.254 Y142.945 E1.28812
G1 X176.197 Y148.846 E1.43719
G1 X176.277 Y149.6 E1.4561
G1 X176.277 Y150.359 E1.47504
G1 X176.199 Y151.104 E1.49372
G1 X175.268 Y157.005 E1.64275
G1 X175.11 Y157.747 E1.66167
G1 X174.876 Y158.469 E1.6806
G1 X174.574 Y159.146 E1.69909
G1 X171.864 Y164.477 E1.84827
G1 X171.485 Y165.134 E1.86719
G1 X171.039 Y165.748 E1.88612
G1 X170.539 Y166.303 E1.90476
G1 X166.321 Y170.524 E2.05361
G1 X165.757 Y171.032 E2.07255
G1 X165.143 Y171.478 E2.09148
G1 X164.501 Y171.848 E2.10996
G1 X159.18 Y174.564 E2.25899
G1 X158.487 Y174.873 E2.27791
G1 X157.766 Y175.107 E2.29682
G1 X157.036 Y175.262 E2.31544
G1 X151.137 Y176.199 E2.46443
G1 X150.383 Y176.278 E2.48335
G1 X149.624 Y176.278 E2.50228
G1 X148.884 Y176.2 E2.52084
G1 X142.985 Y175.268 E2.66982
G1 X142.243 Y175.11 E2.68874
G1 X141.522 Y174.875 E2.70766
G1 X140.842 Y174.572 E2.72623
G1 X135.519 Y171.862 E2.87523
G1 X134.862 Y171.483 E2.89415
G1 X134.249 Y171.037 E2.91306
G1 X133.699 Y170.542 E2.93152
G1 X129.588 Y166.438 E3.07642
G1 X129.08 Y165.874 E3.09536
G1 X128.564 Y165.149 E3.11755
G1 X128.194 Y164.555 E3.13501
G1 X127.884 Y164.005 E3.15076
G1 X125.434 Y159.174 E3.28588
G1 X125.127 Y158.48 E3.30481
G1 X124.894 Y157.758 E3.32374
G1 X124.745 Y157.052 E3.34173
G1 X123.803 Y151.152 E3.49077
G1 X123.723 Y150.398 E3.50969
G1 X123.723 Y149.639 E3.52862
G1 X123.801 Y148.895 E3.54728
G1 X124.732 Y142.996 E3.69626
G1 X124.89 Y142.253 E3.7152
G1 X125.124 Y141.532 E3.73411
G1 X125.426 Y140.855 E3.7526
G1 X128.133 Y135.53 E3.90162
G1 X128.512 Y134.873 E3.92054
G1 X128.958 Y134.259 E3.93947
G1 X129.456 Y133.706 E3.95803
G1 X133.679 Y129.476 E4.10713
G0 F3600 X133.962 Y129.759
G1 F1800 X134.51 Y129.266 E4.12552
G1 X135.109 Y128.835 E4.14393
G1 X135.683 Y128.506 E4.16043
G1 X141.002 Y125.792 E4.30939
G1 X141.676 Y125.493 E4.32778
G1 X142.379 Y125.269 E4.34619
G1 X143.026 Y125.133 E4.36268
G1 X148.925 Y124.196 E4.51167
G1 X149.659 Y124.12 E4.53008
G1 X150.396 Y124.124 E4.54847
G1 X151.053 Y124.195 E4.56495
G1 X156.952 Y125.127 E4.71393
G1 X157.673 Y125.282 E4.73232
G1 X158.373 Y125.513 E4.75071
G1 X158.976 Y125.784 E4.7672
G1 X164.299 Y128.494 E4.9162
G1 X164.937 Y128.864 E4.9346
G1 X165.531 Y129.3 E4.95298
G1 X166.029 Y129.752 E4.96976
G1 X170.274 Y134.009 E5.11972
G1 X170.766 Y134.559 E5.13813
G1 X171.195 Y135.159 E5.15653
G1 X171.518 Y135.724 E5.17277
G1 X174.203 Y140.994 E5.32031
G1 X174.502 Y141.668 E5.3387
G1 X174.725 Y142.371 E5.3571
G1 X174.859 Y143.008 E5.37333
G1 X175.802 Y148.909 E5.5224
G1 X175.879 Y149.642 E5.54079
G1 X175.875 Y150.38 E5.5592
G1 X175.804 Y151.042 E5.57581
G1 X174.873 Y156.943 E5.72483
G1 X174.719 Y157.664 E5.74322
G1 X174.487 Y158.364 E5.76162
G1 X174.218 Y158.964 E5.77802
G1 X171.508 Y164.295 E5.9272
G1 X171.138 Y164.934 E5.94562
G1 X170.702 Y165.528 E5.964
G1 X170.256 Y166.021 E5.98058
G1 X166.038 Y170.242 E6.12943
G1 X165.489 Y170.734 E6.14782
G1 X164.891 Y171.164 E6.1662
G1 X164.319 Y171.492 E6.18264
G1 X158.998 Y174.208 E6.33167
G1 X158.325 Y174.507 E6.35004
G1 X157.622 Y174.731 E6.36844
G1 X156.974 Y174.867 E6.38496
G1 X151.075 Y175.804 E6.53396
G1 X150.341 Y175.88 E6.55236
G1 X149.604 Y175.876 E6.57075
G1 X148.947 Y175.805 E6.58723
G1 X143.048 Y174.873 E6.73621
G1 X142.327 Y174.718 E6.75461
G1 X141.627 Y174.487 E6.77299
G1 X141.024 Y174.216 E6.78949
G1 X135.701 Y171.506 E6.93849
G1 X135.063 Y171.136 E6.95688
G1 X134.469 Y170.7 E6.97526
G1 X133.982 Y170.258 E6.99167
G1 X129.871 Y166.154 E7.13657
G1 X129.378 Y165.606 E7.15496
G1 X128.903 Y164.937 E7.17543
G1 X128.533 Y164.343 E7.19288
G1 X128.24 Y163.824 E7.20775
G1 X125.79 Y158.993 E7.34287
G1 X125.493 Y158.318 E7.36127
G1 X125.27 Y157.615 E7.37967
G1 X125.14 Y156.989 E7.39561
G1 X124.198 Y151.089 E7.54465
G1 X124.121 Y150.356 E7.56304
G1 X124.125 Y149.619 E7.58143
G1 X124.196 Y148.957 E7.59803
G1 X125.127 Y143.058 E7.74701
G1 X125.281 Y142.337 E7.7654
G1 X125.513 Y141.637 E7.78379
G1 X125.782 Y141.036 E7.80022
G1 X128.489 Y135.711 E7.94923
G1 X128.859 Y135.073 E7.96763
G1 X129.295 Y134.479 E7.98601
G1 X129.739 Y133.989 E8.0025
G1 X133.962 Y129.759 E8.1516
G0 F3600 X134.245 Y130.041
G1 F1800 X134.778 Y129.564 E8.16945
G1 X135.36 Y129.149 E8.18728
G1 X135.865 Y128.862 E8.20177
G1 X141.184 Y126.148 E8.35072
G1 X141.838 Y125.859 E8.36856
G1 X142.521 Y125.645 E8.38641
G1 X143.089 Y125.528 E8.40088
G1 X148.988 Y124.591 E8.54988
G1 X149.7 Y124.519 E8.56773
G1 X150.415 Y124.526 E8.58556
G1 X150.991 Y124.59 E8.60002
G1 X156.89 Y125.522 E8.749
G1 X157.589 Y125.673 E8.76684
G1 X158.267 Y125.901 E8.78468
G1 X158.795 Y126.141 E8.79915
G1 X164.118 Y128.851 E8.94815
G1 X164.736 Y129.21 E8.96598
G1 X165.31 Y129.637 E8.98382
G1 X165.746 Y130.035 E8.99855
G1 X169.991 Y134.292 E9.14851
G1 X170.467 Y134.826 E9.16636
G1 X170.88 Y135.41 E9.1842
G1 X171.162 Y135.906 E9.19843
G1 X173.847 Y141.176 E9.34597
G1 X174.135 Y141.83 E9.3638
G1 X174.349 Y142.513 E9.38165
G1 X174.464 Y143.071 E9.39587
G1 X175.407 Y148.972 E9.54493
G1 X175.48 Y149.684 E9.56279
G1 X175.473 Y150.399 E9.58062
G1 X175.409 Y150.979 E9.59518
G1 X174.478 Y156.88 E9.7442
G1 X174.327 Y157.58 E9.76207
G1 X174.099 Y158.258 E9.77991
G1 X173.861 Y158.783 E9.79429
G1 X171.151 Y164.114 E9.94347
G1 X170.792 Y164.733 E9.96132
G1 X170.366 Y165.307 E9.97915
G1 X169.973 Y165.738 E9.9937
G1 X165.755 Y169.959 E10.14255
G1 X165.222 Y170.436 E10.16039
G1 X164.639 Y170.85 E10.17823
G1 X164.138 Y171.135 E10.19261
G1 X158.817 Y173.851 E10.34163
G1 X158.162 Y174.14 E10.35949
G1 X157.48 Y174.355 E10.37733
G1 X156.911 Y174.472 E10.39182
G1 X151.012 Y175.409 E10.54082
G1 X150.3 Y175.481 E10.55867
G1 X149.585 Y175.474 E10.5765
G1 X149.009 Y175.41 E10.59096
G1 X143.11 Y174.478 E10.73994
G1 X142.411 Y174.327 E10.75778
G1 X141.733 Y174.099 E10.77562
G1 X141.205 Y173.859 E10.79009
G1 X135.882 Y171.149 E10.93909
G1 X135.264 Y170.79 E10.95692
G1 X134.69 Y170.363 E10.97476
G1 X134.264 Y169.975 E10.98914
G1 X130.153 Y165.871 E11.13404
G1 X129.676 Y165.339 E11.15186
G1 X129.243 Y164.726 E11.17059
G1 X128.873 Y164.132 E11.18804
G1 X128.597 Y163.643 E11.20205
G1 X126.147 Y158.812 E11.33717
G1 X125.86 Y158.157 E11.35501
G1 X125.647 Y157.474 E11.37286
G1 X125.535 Y156.926 E11.38681
G1 X124.593 Y151.026 E11.53585
G1 X124.52 Y150.315 E11.55368
G1 X124.527 Y149.599 E11.57154
G1 X124.591 Y149.019 E11.5861
G1 X125.522 Y143.12 E11.73507
G1 X125.673 Y142.421 E11.75291
G1 X125.901 Y141.743 E11.77075
G1 X126.139 Y141.218 E11.78513
G1 X128.846 Y135.893 E11.93414
G1 X129.205 Y135.274 E11.95199
G1 X129.631 Y134.7 E11.96982
G1 X130.022 Y134.271 E11.9843
G1 X134.245 Y130.041 E12.1334
G0 F3600 X134.528 Y130.324
G1 F1800 X135.045 Y129.863 E12.15068
G1 X135.611 Y129.464 E12.16796
G1 X136.047 Y129.219 E12.18043
G1 X141.366 Y126.505 E12.32939
G1 X142 Y126.226 E12.34667
G1 X142.662 Y126.022 E12.36395
G1 X143.152 Y125.923 E12.37642
G1 X149.051 Y124.986 E12.52541
G1 X149.74 Y124.917 E12.54269
G1 X150.432 Y124.928 E12.55995
G1 X150.928 Y124.986 E12.57241
G1 X156.827 Y125.918 E12.72138
G1 X157.504 Y126.065 E12.73867
G1 X158.159 Y126.289 E12.75593
G1 X158.613 Y126.497 E12.76839
G1 X163.936 Y129.207 E12.91739
G1 X164.534 Y129.556 E12.93466
G1 X165.088 Y129.972 E12.95194
G1 X165.463 Y130.317 E12.96466
G1 X169.708 Y134.574 E13.11462
G1 X170.168 Y135.092 E13.1319
G1 X170.565 Y135.659 E13.14917
G1 X170.805 Y136.087 E13.16141
G1 X173.49 Y141.357 E13.30895
G1 X173.768 Y141.991 E13.32622
G1 X173.972 Y142.653 E13.3435
G1 X174.069 Y143.134 E13.35574
G1 X175.012 Y149.035 E13.50481
G1 X175.081 Y149.724 E13.52208
G1 X175.071 Y150.417 E13.53937
G1 X175.014 Y150.917 E13.55192
G1 X174.083 Y156.818 E13.70094
G1 X173.935 Y157.495 E13.71823
G1 X173.711 Y158.15 E13.7355
G1 X173.505 Y158.602 E13.74789
G1 X170.795 Y163.933 E13.89707
G1 X170.446 Y164.531 E13.91434
G1 X170.03 Y165.085 E13.93162
G1 X169.69 Y165.455 E13.94416
G1 X165.472 Y169.676 E14.09301
G1 X164.955 Y170.137 E14.11029
G1 X164.389 Y170.535 E14.12755
G1 X163.956 Y170.779 E14.13995
G1 X158.635 Y173.495 E14.28897
G1 X158.001 Y173.774 E14.30625
G1 X157.339 Y173.978 E14.32353
G1 X156.848 Y174.077 E14.33602
G1 X150.949 Y175.014 E14.48502
G1 X150.26 Y175.083 E14.50229
G1 X149.568 Y175.072 E14.51956
G1 X149.072 Y175.014 E14.53202
G1 X143.173 Y174.082 E14.68099
G1 X142.496 Y173.935 E14.69827
G1 X141.841 Y173.711 E14.71554
G1 X141.387 Y173.503 E14.728
G1 X136.064 Y170.793 E14.877
G1 X135.466 Y170.444 E14.89427
G1 X134.912 Y170.028 E14.91155
G1 X134.547 Y169.692 E14.92393
G1 X130.436 Y165.588 E15.06883
G1 X129.975 Y165.072 E15.08609
G1 X129.582 Y164.514 E15.10312
G1 X129.212 Y163.92 E15.12057
G1 X128.954 Y163.462 E15.13369
G1 X126.504 Y158.631 E15.26881
G1 X126.227 Y157.996 E15.28609
G1 X126.025 Y157.334 E15.30335
G1 X125.93 Y156.863 E15.31534
G1 X124.988 Y150.963 E15.46438
G1 X124.919 Y150.274 E15.48165
G1 X124.929 Y149.581 E15.49894
G1 X124.986 Y149.082 E15.51147
G1 X125.917 Y143.183 E15.66044
G1 X126.065 Y142.506 E15.67773
G1 X126.289 Y141.851 E15.695
G1 X126.495 Y141.399 E15.70739
G1 X129.202 Y136.074 E15.8564
G1 X129.551 Y135.476 E15.87367
G1 X129.967 Y134.922 E15.89095
G1 X130.305 Y134.554 E15.90342
G1 X134.528 Y130.324 E16.05252
G0 F3600 X134.811 Y130.606
G1 F1800 X135.311 Y130.162 E16.0692
G1 X135.861 Y129.781 E16.08589
G1 X136.229 Y129.575 E16.09641
G1 X141.548 Y126.861 E16.24537
G1 X142.161 Y126.593 E16.26206
G1 X142.801 Y126.4 E16.27873
G1 X143.215 Y126.318 E16.28926
G1 X149.114 Y125.381 E16.43826
G1 X149.779 Y125.316 E16.45492
G1 X150.448 Y125.331 E16.47162
G1 X150.866 Y125.381 E16.48212
G1 X156.765 Y126.313 E16.63109
G1 X157.418 Y126.456 E16.64777
G1 X158.05 Y126.677 E16.66447
G1 X158.432 Y126.854 E16.67497
G1 X163.755 Y129.564 E16.82397
G1 X164.332 Y129.902 E16.84065
G1 X164.864 Y130.307 E16.85733
G1 X165.179 Y130.6 E16.86806
G1 X169.424 Y134.857 E17.01803
G1 X169.868 Y135.358 E17.03473
G1 X170.248 Y135.908 E17.0514
G1 X170.449 Y136.269 E17.06171
G1 X173.134 Y141.539 E17.20925
G1 X173.401 Y142.152 E17.22593
G1 X173.594 Y142.793 E17.24263
G1 X173.674 Y143.197 E17.2529
G1 X174.617 Y149.098 E17.40197
G1 X174.683 Y149.764 E17.41867
G1 X174.669 Y150.433 E17.43536
G1 X174.619 Y150.855 E17.44596
G1 X173.688 Y156.756 E17.59498
G1 X173.544 Y157.409 E17.61166
G1 X173.324 Y158.041 E17.62835
G1 X173.148 Y158.421 E17.6388
G1 X170.438 Y163.752 E17.78798
G1 X170.1 Y164.329 E17.80466
G1 X169.695 Y164.862 E17.82136
G1 X169.407 Y165.172 E17.83191
G1 X165.189 Y169.393 E17.98077
G1 X164.689 Y169.838 E17.99746
G1 X164.139 Y170.219 E18.01415
G1 X163.774 Y170.423 E18.02458
G1 X158.453 Y173.139 E18.17361
G1 X157.84 Y173.407 E18.1903
G1 X157.199 Y173.6 E18.207
G1 X156.785 Y173.682 E18.21752
G1 X150.886 Y174.619 E18.36652
G1 X150.221 Y174.684 E18.38319
G1 X149.552 Y174.669 E18.39988
G1 X149.134 Y174.619 E18.41038
G1 X143.235 Y173.687 E18.55936
G1 X142.582 Y173.544 E18.57603
G1 X141.95 Y173.323 E18.59274
G1 X141.568 Y173.146 E18.60324
G1 X136.245 Y170.436 E18.75224
G1 X135.668 Y170.098 E18.76892
G1 X135.136 Y169.693 E18.7856
G1 X134.83 Y169.409 E18.79601
G1 X130.719 Y165.305 E18.94092
G1 X130.274 Y164.805 E18.95761
G1 X129.922 Y164.303 E18.97291
G1 X129.552 Y163.709 E18.99036
G1 X129.311 Y163.281 E19.00262
G1 X126.861 Y158.45 E19.13774
G1 X126.594 Y157.836 E19.15444
G1 X126.403 Y157.195 E19.17112
G1 X126.325 Y156.8 E19.18117
G1 X125.383 Y150.9 E19.33021
G1 X125.317 Y150.234 E19.3469
G1 X125.331 Y149.565 E19.36359
G1 X125.381 Y149.144 E19.37417
G1 X126.312 Y143.245 E19.52314
G1 X126.456 Y142.592 E19.53982
G1 X126.677 Y141.96 E19.55652
G1 X126.852 Y141.58 E19.56696
G1 X129.559 Y136.255 E19.71597
G1 X129.897 Y135.678 E19.73265
G1 X130.302 Y135.145 E19.74935
G1 X130.588 Y134.836 E19.75985
G1 X134.811 Y130.606 E19.90895
G0 F3600 X135.094 Y130.889
G1 F1800 X135.577 Y130.462 E19.92504
G1 X136.109 Y130.098 E19.94112
G1 X136.411 Y129.931 E19.94972
G1 X141.73 Y127.217 E20.09868
G1 X142.321 Y126.96 E20.11476
G1 X142.939 Y126.779 E20.13082
G1 X143.277 Y126.713 E20.13941
G1 X149.176 Y125.776 E20.28841
G1 X149.818 Y125.715 E20.3045
G1 X150.462 Y125.733 E20.32057
G1 X150.803 Y125.776 E20.32914
G1 X156.702 Y126.708 E20.47812
G1 X157.332 Y126.848 E20.49421
G1 X157.939 Y127.064 E20.51029
G1 X158.25 Y127.21 E20.51886
G1 X163.573 Y129.92 E20.66786
G1 X164.128 Y130.248 E20.68394
G1 X164.639 Y130.641 E20.70002
G1 X164.896 Y130.882 E20.70881
G1 X169.141 Y135.139 E20.85877
G1 X169.567 Y135.623 E20.87486
G1 X169.93 Y136.156 E20.89094
G1 X170.092 Y136.45 E20.89932
G1 X172.777 Y141.72 E21.04686
G1 X173.034 Y142.312 E21.06296
G1 X173.215 Y142.93 E21.07902
G1 X173.279 Y143.26 E21.08741
G1 X174.222 Y149.161 E21.23647
G1 X174.284 Y149.803 E21.25256
G1 X174.266 Y150.448 E21.26866
G1 X174.223 Y150.792 E21.27731
G1 X173.292 Y156.693 E21.42633
G1 X173.153 Y157.323 E21.44242
G1 X172.936 Y157.93 E21.4585
G1 X172.791 Y158.239 E21.46702
G1 X170.081 Y163.57 E21.6162
G1 X169.754 Y164.126 E21.63229
G1 X169.361 Y164.637 E21.64837
G1 X169.124 Y164.89 E21.65701
G1 X164.906 Y169.111 E21.80587
G1 X164.423 Y169.538 E21.82195
G1 X163.891 Y169.901 E21.83802
G1 X163.592 Y170.067 E21.84655
G1 X158.271 Y172.783 E21.99557
G1 X157.68 Y173.039 E22.01164
G1 X157.061 Y173.221 E22.02773
G1 X156.723 Y173.287 E22.03632
G1 X150.824 Y174.224 E22.18532
G1 X150.182 Y174.285 E22.20141
G1 X149.538 Y174.267 E22.21748
G1 X149.197 Y174.224 E22.22605
G1 X143.298 Y173.292 E22.37503
G1 X142.668 Y173.152 E22.39113
G1 X142.061 Y172.936 E22.4072
G1 X141.75 Y172.79 E22.41577
G1 X136.427 Y170.08 E22.56477
G1 X135.872 Y169.752 E22.58085
G1 X135.361 Y169.359 E22.59693
G1 X135.112 Y169.126 E22.60544
G1 X131.001 Y165.022 E22.75034
G1 X130.574 Y164.539 E22.76642
G1 X130.261 Y164.091 E22.78005
G1 X129.891 Y163.497 E22.79751
G1 X129.667 Y163.1 E22.80888
G1 X127.217 Y158.269 E22.944
G1 X126.962 Y157.677 E22.96008
G1 X126.782 Y157.058 E22.97616
G1 X126.72 Y156.737 E22.98432
G1 X125.778 Y150.837 E23.13336
G1 X125.716 Y150.195 E23.14945
G1 X125.734 Y149.551 E23.16552
G1 X125.777 Y149.206 E23.17419
G1 X126.708 Y143.307 E23.32316
G1 X126.847 Y142.678 E23.33923
G1 X127.064 Y142.071 E23.35531
G1 X127.209 Y141.762 E23.36383
G1 X129.916 Y136.437 E23.51284
G1 X130.243 Y135.881 E23.52893
G1 X130.636 Y135.37 E23.54501
